src/icons/svg/icon.svg

<?xml version="1.0" encoding="UTF-8" standalone="no"?>
<svg width="128px" height="128px" viewBox="0 0 128 128" version="1.1" xmlns="http://www.w3.org/2000/svg" xmlns:xlink="http://www.w3.org/1999/xlink">
    <!-- Generator: Sketch 40 (33762) - http://www.bohemiancoding.com/sketch -->
    <title>icon</title>
    <desc>Created with Sketch.</desc>
    <defs></defs>
    <g id="Page-1" stroke="none" stroke-width="1" fill="none" fill-rule="evenodd">
        <g id="icon" fill="#000000">
            <path d="M115.146643,0.0624390244 C116.890395,0.0624390244 118.537271,0.377283075 120.087273,1.00697118 C121.637274,1.63665928 122.993525,2.53275388 124.156027,3.69525499 C125.318528,4.8577561 126.238841,6.21400739 126.916967,7.76400887 C127.595092,9.31401035 127.934155,11.0093245 127.934155,12.8499512 L127.934155,115.150049 C127.934155,118.831302 126.747435,121.882868 124.373996,124.304745 C122.000556,126.726622 119.021647,127.937561 115.437268,127.937561 L12.9918581,127.937561 C9.1168544,127.937561 5.99263267,126.678185 3.6191929,124.159432 C1.24575314,121.64068 0.0590332594,118.492239 0.0590332594,114.714111 L0.0590332594,12.7046386 C0.0590332594,9.31401035 1.22153437,6.35932003 3.54653659,3.84056763 C5.8715388,1.32181523 8.97154176,0.0624390244 12.8465455,0.0624390244 L115.146643,0.0624390244 L115.146643,0.0624390244 Z M81.4341109,109.046918 C83.1778625,109.046918 84.4372387,108.635199 85.2122395,107.811761 C85.9872402,106.988322 86.3747406,105.898477 86.3747406,104.542226 C86.3747406,103.28285 85.9872402,102.217224 85.2122395,101.345348 C84.4372387,100.473472 83.1778625,100.037534 81.4341109,100.037534 L72.5700399,100.037534 C72.666915,99.8437842 72.7153525,99.5531589 72.7153525,99.1656585 L72.7153525,27.0905898 L81.7247361,27.0905898 C83.4684878,27.0905898 84.6794265,26.6546519 85.3575521,25.7827761 C86.0356778,24.9109002 86.3747406,23.8452742 86.3747406,22.585898 C86.3747406,21.3265218 86.0356778,20.2608958 85.3575521,19.38902 C84.6794265,18.5171441 83.4684878,18.0812062 81.7247361,18.0812062 L46.2684523,18.0812062 C44.5247007,18.0812062 43.313762,18.5171441 42.6356364,19.38902 C41.9575107,20.2608958 41.6184479,21.3265218 41.6184479,22.585898 C41.6184479,23.8452742 41.9575107,24.9109002 42.6356364,25.7827761 C43.313762,26.6546519 44.5247007,27.0905898 46.2684523,27.0905898 L54.4059601,27.0905898 L54.4059601,99.1656585 C54.4059601,99.3594087 54.4301789,99.5047214 54.4786164,99.6015965 C54.527054,99.6984715 54.5512727,99.8437842 54.5512727,100.037534 L46.5590776,100.037534 C44.8153259,100.037534 43.5559497,100.473472 42.780949,101.345348 C42.0059483,102.217224 41.6184479,103.28285 41.6184479,104.542226 C41.6184479,105.898477 42.0059483,106.988322 42.780949,107.811761 C43.5559497,108.635199 44.8153259,109.046918 46.5590776,109.046918 L81.4341109,109.046918 L81.4341109,109.046918 Z" id="Shape"></path>
        </g>
    </g>
</svg>

<svg width="128" height="128" xmlns="http://www.w3.org/2000/svg"><path d="M115.147.062a13 13 0 0 1 4.94.945c1.55.63 2.907 1.526 4.069 2.688a13.148 13.148 0 0 1 2.761 4.069c.678 1.55 1.017 3.245 1.017 5.086v102.3c0 3.681-1.187 6.733-3.56 9.155-2.373 2.422-5.352 3.633-8.937 3.633H12.992c-3.875 0-7-1.26-9.373-3.779-2.373-2.518-3.56-5.667-3.56-9.445V12.704c0-3.39 1.163-6.345 3.488-8.863C5.872 1.32 8.972.062 12.847.062h102.3zM81.434 109.047c1.744 0 3.003-.412 3.778-1.235.775-.824 1.163-1.914 1.163-3.27 0-1.26-.388-2.325-1.163-3.197-.775-.872-2.034-1.307-3.778-1.307H72.57c.097-.194.145-.485.145-.872V27.09h9.01c1.743 0 2.954-.436 3.633-1.308.678-.872 1.017-1.938 1.017-3.197 0-1.26-.34-2.325-1.017-3.197-.679-.872-1.89-1.308-3.633-1.308H46.268c-1.743 0-2.954.436-3.632 1.308-.678.872-1.018 1.938-1.018 3.197 0 1.26.34 2.325 1.018 3.197.678.872 1.889 1.308 3.632 1.308h8.138v72.075c0 .193.024.339.073.436.048.096.072.242.072.436H46.56c-1.744 0-3.003.435-3.778 1.307-.775.872-1.163 1.938-1.163 3.197 0 1.356.388 2.446 1.163 3.27.775.823 2.034 1.235 3.778 1.235h34.875z" fill-rule="evenodd"/></svg>
